X:1
T:[ID 4-49v]
T:[ID 4-49v]
T:Bezeichnung standardisiert: Anglaise Angeloise
T:Urheber unbekannt Erstbeleg: 1767 (Datum in der schriftlichen Quelle) Datum in der hier transkribierten schriftlichen Quelle: 1776 - 1791
C:Urheber unbekannt
C:Erstbeleg: 1767 (Datum in der schriftlichen Quelle)
C:Datum in der hier transkribierten schriftlichen Quelle: 1776 - 1791
L:1/8
M:2/4
K:D
V:1 treble 
V:1
 D2 D/D/D/D/ | F2 F/F/F/F/ | AFAF | D2 z A | dAdA | dA FD | A2 AA | A2 z2 :: afaf | gege | fdfd | %11
 [Ae]4 | (3(af).a (3(af).a | (3geg (3geg | gege | fdec | d4 ::[K:G] G3 A | BG=cA | d3 B | G2 G2 | %21
 d4 | cABG | AGAB | G4 :| %25

